Catalina-light/actions/16/view-list-images.svg

<svg xmlns="http://www.w3.org/2000/svg" width="16" height="16" viewBox="0 0 16 16">
 <defs>
  <style id="current-color-scheme" type="text/css">
   .ColorScheme-Text { color:#5c616c; } .ColorScheme-Highlight { color:#5294e2; }
  </style>
 </defs>
 <path style="fill:currentColor" class="ColorScheme-Text" d="M 5 2.0039062 L 4 3.0039062 L 3 3.0039062 C 1 3.0039062 1 5.0039062 1 5.0039062 L 1 12.003906 C 1 14.003906 3 14.003906 3 14.003906 L 13 14.003906 C 15 14.003906 15 12.003906 15 12.003906 L 15 5.0039062 C 15 3.0039062 13 3.0039062 13 3.0039062 L 12 3.0039062 L 11 2.0039062 L 5 2.0039062 z M 8 5.0039062 C 9.6568 5.0039062 11 6.3471062 11 8.0039062 C 11 9.6607063 9.6568 11.003906 8 11.003906 C 6.3432 11.003906 5 9.6607063 5 8.0039062 C 5 6.3471062 6.3432 5.0039062 8 5.0039062 z"/>
</svg>

<svg width="16" height="16" viewBox="0 0 16 16" xmlns="http://www.w3.org/2000/svg">
<defs>
<style id="current-color-scheme" type="text/css">.ColorScheme-Text { color:#5c616c; } .ColorScheme-Highlight { color:#5294e2; }</style>
</defs>
<path class="ColorScheme-Text" d="m5 2.0039-1 1h-1c-2 0-2 2-2 2v7c0 2 2 2 2 2h10c2 0 2-2 2-2v-7c0-2-2-2-2-2h-1l-1-1h-6zm3 3c1.6568 0 3 1.3432 3 3 0 1.6568-1.3432 3-3 3s-3-1.3432-3-3c0-1.6568 1.3432-3 3-3z" fill="#363636"/>
</svg>
